X:261
T:Reel 261
M:4/4
K:Dmaj
L:1/8
AG|FDEC A,DD2| (3FGA Bc dBAG|FDDF A,DDF|EDEF EA,A,G|FDEC A,DD2|FABc d3e|fdec dcBA| (3Bcd AF E2|FA| (3Bcd AF G2F2|EDEF DCA,z|BcdB BAF2| (3FGA Bc dBAG|FDEC A,DD2| (3Bcd AF G2FG| (3AFF  (3EFG FDED|CDEF G2|
